picto/hand-dryer-framed.svg

<svg class="color-immutable" width="30" height="30" viewBox="0 0 30 30" fill="none" xmlns="http://www.w3.org/2000/svg"><path d="M30.0022 0H0.00219727V30H30.0022V0Z" fill="#2D327D"/><path d="M25.5022 3C26.3272 3 27.0022 3.675 27.0022 4.5V25.5C27.0022 26.325 26.3272 27 25.5022 27H4.5022C3.6772 27 3.0022 26.325 3.0022 25.5V4.5C3.0022 3.675 3.6772 3 4.5022 3H25.5022ZM25.5022 2.625H4.5022C3.46832 2.625 2.6272 3.46613 2.6272 4.5V25.5C2.6272 26.5339 3.46832 27.375 4.5022 27.375H25.5022C26.5361 27.375 27.3772 26.5339 27.3772 25.5V4.5C27.3772 3.46613 26.5361 2.625 25.5022 2.625Z" fill="white"/><path d="M18.2626 11.55C18.945 11.55 19.5001 10.9949 19.5001 10.3125C19.5001 9.63015 18.945 9.075 18.2626 9.075V9.525C18.6969 9.525 19.0501 9.87825 19.0501 10.3125C19.0501 10.7468 18.6969 11.1 18.2626 11.1C17.8284 11.1 17.4751 10.7468 17.4751 10.3125V6H17.0251V10.3125C17.0251 10.9949 17.5804 11.55 18.2626 11.55Z" fill="white"/><path d="M11.7375 11.55C12.4198 11.55 12.975 10.9949 12.975 10.3125V6H12.525V10.3125C12.525 10.7468 12.1717 11.1 11.7375 11.1C11.3032 11.1 10.95 10.7468 10.95 10.3125C10.95 9.87825 11.3032 9.525 11.7375 9.525V9.075C11.0551 9.075 10.5 9.63015 10.5 10.3125C10.5 10.9949 11.0552 11.55 11.7375 11.55Z" fill="white"/><path d="M17.2501 13.0875C17.2501 12.4051 16.695 11.85 16.0126 11.85V12.3C16.4469 12.3 16.8001 12.6532 16.8001 13.0875C16.8001 13.5217 16.4469 13.875 16.0126 13.875C15.5784 13.875 15.2251 13.5217 15.2251 13.0875V6H14.7751V13.0875C14.7751 13.7698 15.3303 14.325 16.0126 14.325C16.695 14.325 17.2501 13.7698 17.2501 13.0875Z" fill="white"/><path d="M13.6946 16.6321C13.6946 16.3043 13.4292 16.0391 13.1011 16.0391C12.9446 16.0391 12.793 16.1009 12.6818 16.2125L9.15932 19.7346C9.04105 19.8539 8.87972 19.9212 8.7106 19.9212H7.70515C7.4596 19.9212 7.26047 19.722 7.2607 19.4768V17.6732C7.2604 17.2692 7.0072 16.91 6.6259 16.7754C6.57565 16.7578 6.5224 16.7483 6.46697 16.7483C6.20552 16.7483 5.9917 16.9617 5.9917 17.2243V23.9981L11.2382 24V23.9981L13.4372 21.8017C13.5446 21.6941 13.6049 21.548 13.6047 21.3972C13.605 21.2458 13.5446 21.1003 13.4372 20.9927L13.2581 20.8137L11.5624 22.5095L11.3683 22.3151L13.445 20.2386C13.5524 20.1322 13.6124 19.9862 13.6124 19.8347C13.6124 19.6826 13.5524 19.5377 13.445 19.4308L13.2658 19.251L10.7848 21.7319L10.5907 21.5377L13.4527 18.6758C13.5602 18.5681 13.6202 18.4243 13.6202 18.2712C13.6202 18.1211 13.5602 17.9744 13.4527 17.8687L13.2732 17.6882L10.0073 20.9545L9.81302 20.7601L13.5212 17.0519C13.6325 16.9405 13.6946 16.7888 13.6946 16.6321Z" fill="white"/><path d="M23.5165 16.7483C23.4609 16.7483 23.4078 16.7579 23.3576 16.7754C22.9763 16.91 22.7229 17.2693 22.7226 17.6732V19.4768C22.7229 19.7221 22.5237 19.9212 22.2782 19.9212H21.2729C21.1036 19.9212 20.9424 19.8539 20.824 19.7346L17.3016 16.2125C17.1905 16.1009 17.0387 16.0391 16.8824 16.0391C16.5542 16.0391 16.2888 16.3043 16.2888 16.6321C16.2888 16.7888 16.3508 16.9405 16.4623 17.0519L20.1704 20.7601L19.9763 20.9545L16.7103 17.6882L16.5307 17.8687C16.4231 17.9744 16.3634 18.1211 16.3634 18.2712C16.3634 18.4243 16.4231 18.5681 16.5307 18.6758L19.3927 21.5377L19.1985 21.7319L16.7175 19.251L16.5385 19.4308C16.4309 19.5378 16.3709 19.6826 16.3709 19.8347C16.3709 19.9862 16.4309 20.1321 16.5385 20.2386L18.615 22.3151L18.4208 22.5095L16.7253 20.8137L16.546 20.9927C16.4387 21.1003 16.3784 21.2458 16.3787 21.3972C16.3784 21.548 16.4387 21.6941 16.546 21.8017L18.7451 23.9981V24L23.9915 23.9981V17.2243C23.9916 16.9617 23.7779 16.7483 23.5165 16.7483Z" fill="white"/></svg>

<svg class="color-immutable" width="30" height="30" viewBox="0 0 30 30" fill="none" xmlns="http://www.w3.org/2000/svg"><g clip-path="url(#a)"><path d="M30.002 0h-30v30h30V0Z" fill="#2D327D"/><path d="M25.502 3c.825 0 1.5.675 1.5 1.5v21c0 .825-.675 1.5-1.5 1.5h-21c-.825 0-1.5-.675-1.5-1.5v-21c0-.825.675-1.5 1.5-1.5h21Zm0-.375h-21A1.877 1.877 0 0 0 2.627 4.5v21c0 1.034.841 1.875 1.875 1.875h21a1.877 1.877 0 0 0 1.875-1.875v-21a1.877 1.877 0 0 0-1.875-1.875Z" fill="#fff"/><path d="M18.263 11.55a1.239 1.239 0 0 0 0-2.475v.45a.788.788 0 1 1-.788.787V6h-.45v4.313c0 .682.555 1.237 1.238 1.237ZM11.738 11.55c.682 0 1.237-.555 1.237-1.238V6h-.45v4.313a.788.788 0 1 1-.787-.788v-.45a1.239 1.239 0 0 0 0 2.475ZM17.25 13.088c0-.683-.555-1.238-1.237-1.238v.45a.788.788 0 1 1-.788.787V6h-.45v7.088a1.239 1.239 0 0 0 2.475 0ZM13.695 16.632a.593.593 0 0 0-1.013-.42l-3.523 3.523a.631.631 0 0 1-.448.186H7.705a.444.444 0 0 1-.444-.444v-1.804a.951.951 0 0 0-.635-.898.476.476 0 0 0-.634.449v6.774l5.246.002v-.002l2.2-2.196a.573.573 0 0 0 0-.81l-.18-.178-1.696 1.695-.194-.194 2.077-2.076a.569.569 0 0 0 0-.808l-.18-.18-2.48 2.48-.194-.193 2.862-2.862a.57.57 0 0 0 0-.807l-.18-.18-3.266 3.265-.194-.194 3.708-3.708a.595.595 0 0 0 .174-.42ZM23.517 16.748a.48.48 0 0 0-.16.027.951.951 0 0 0-.634.898v1.804a.444.444 0 0 1-.445.444h-1.005a.632.632 0 0 1-.449-.186l-3.522-3.523a.592.592 0 0 0-.84.84l3.708 3.708-.194.194-3.266-3.266-.18.18a.569.569 0 0 0 0 .807l2.863 2.863-.195.194-2.48-2.481-.18.18a.568.568 0 0 0 0 .808l2.077 2.076-.194.194-1.696-1.695-.179.179a.572.572 0 0 0 0 .809l2.2 2.196V24l5.245-.002v-6.774a.476.476 0 0 0-.474-.476Z" fill="#fff"/></g><defs><clipPath id="a"><path fill="#fff" d="M0 0h30v30H0z"/></clipPath></defs></svg>
